icon/mi/post.svg

<?xml version="1.0" encoding="UTF-8"?>
<svg viewBox="0 0 15 15" xmlns="http://www.w3.org/2000/svg" id="post" height="1em" width="1em">
  <path d="M13.5 3.65139C13.5 3.86918 13.3912 4.07257 13.2099 4.19338L7.5 8L1.79006 4.19338C1.60885 4.07257 1.5 3.86918 1.5 3.65139C1.5 3.29164 1.79164 3 2.15139 3L12.8486 3C13.2084 3 13.5 3.29164 13.5 3.65139Z M13.5 5.96713V11C13.5 11.5523 13.0523 12 12.5 12H2.5C1.94772 12 1.5 11.5523 1.5 11L1.5 5.96713C1.5 5.76746 1.72254 5.64836 1.88868 5.75912L7.5 9.5L13.1113 5.75912C13.2775 5.64836 13.5 5.76746 13.5 5.96713Z"/>
</svg>

<svg width="15" height="15" xmlns="http://www.w3.org/2000/svg"><path d="M13.5 3.651a.651.651 0 0 1-.29.542L7.5 8 1.79 4.193A.651.651 0 0 1 2.151 3H12.85c.36 0 .651.292.651.651Zm0 2.316V11a1 1 0 0 1-1 1h-10a1 1 0 0 1-1-1V5.967c0-.2.223-.319.389-.208L7.5 9.5l5.611-3.74a.25.25 0 0 1 .389.207Z"/></svg>
